images/themes/default/classification_methods/mClassificationPrettyBreak.svg

<svg height="16" width="16" xmlns="http://www.w3.org/2000/svg"><rect fill="#fff" fill-opacity=".502" height="16" rx="2" width="16"/><path d="m12.5 2v12m-5-12v12" fill="#6389b8" stroke="#6389b8"/><path d="m.656 2.39 14.666 11.188" fill="#d3bf2c" fill-opacity=".502" stroke="#d3c02d"/><path d="m1 3 15 11h-15l-.484-11.266" fill="#d3bf2c" fill-opacity=".502"/><path d="m3 4h2v2h-2zm0 3h2v2h-2zm0 3h2v2h-2zm6-3h2v2h-2zm4 3h2v2h-2zm-4 0h2v2h-2z"/><path d="m.5 2v12m15-12v12" fill="#6389b8" stroke="#6389b8"/></svg>

<svg xmlns="http://www.w3.org/2000/svg" height="16" width="16"><rect width="16" height="16" rx="2" ry="2" fill="#fff" fill-opacity=".502"/><path d="M12.5 2v12M7.5 2v12" fill="#6389b8" stroke="#6389b8"/><path d="M.656 2.39l14.666 11.188" fill="#d3bf2c" fill-opacity=".502" stroke="#d3c02d"/><path d="M1 3l15 11H1L.516 2.734" fill="#d3bf2c" fill-opacity=".502"/><path d="M3 4h2v2H3zM3 7h2v2H3zM3 10h2v2H3zM9 7h2v2H9zM13 10h2v2h-2zM9 10h2v2H9z"/><path d="M.5 2v12M15.5 2v12" fill="#6389b8" stroke="#6389b8"/></svg>
